Script.svg

<svg height="16" viewBox="0 0 16 16" width="16" xmlns="http://www.w3.org/2000/svg"><g transform="translate(0 -1036.4)"><path d="m6 1-1 1v11h-1v-2h-2v3l1 1h7c1.104569 0 2-.895431 2-2v-8h3v-2c0-1.1045695-.895431-2-2-2z" fill="#e0e0e0" transform="translate(0 1036.4)"/><path d="m6 1c-1.1046 0-2 .89543-2 2v7h-3v3c0 1.1046.89543 2 2 2s2-.89543 2-2v-10c0-.55228.44772-1 1-1s1 .44772 1 1v3h5v-1h-4v-2c0-1.1046-.89543-2-2-2zm-4 10h2v2c0 .55228-.44772 1-1 1s-1-.44772-1-1z" fill="#b4b4b4" transform="translate(0 1036.4)"/><circle cx="3" cy="1048.4" fill="#e0e0e0"/></g></svg>

<?xml version="1.0" encoding="UTF-8" standalone="no"?>
<svg
   xmlns:dc="http://purl.org/dc/elements/1.1/"
   xmlns:cc="http://creativecommons.org/ns#"
   xmlns:rdf="http://www.w3.org/1999/02/22-rdf-syntax-ns#"
   xmlns:svg="http://www.w3.org/2000/svg"
   xmlns="http://www.w3.org/2000/svg"
   xmlns:sodipodi="http://sodipodi.sourceforge.net/DTD/sodipodi-0.dtd"
   xmlns:inkscape="http://www.inkscape.org/namespaces/inkscape"
   inkscape:version="1.0 (4035a4fb49, 2020-05-01)"
   sodipodi:docname="Script.svg"
   id="svg10"
   version="1.1"
   width="16"
   viewBox="0 0 16 16"
   height="16">
  <metadata
     id="metadata16">
    <rdf:RDF>
      <cc:Work
         rdf:about="">
        <dc:format>image/svg+xml</dc:format>
        <dc:type
           rdf:resource="http://purl.org/dc/dcmitype/StillImage" />
      </cc:Work>
    </rdf:RDF>
  </metadata>
  <defs
     id="defs14" />
  <sodipodi:namedview
     inkscape:current-layer="svg10"
     inkscape:window-maximized="0"
     inkscape:window-y="26"
     inkscape:window-x="0"
     inkscape:cy="8.4167853"
     inkscape:cx="2.4587748"
     inkscape:zoom="31.068504"
     showgrid="false"
     id="namedview12"
     inkscape:window-height="874"
     inkscape:window-width="1600"
     inkscape:pageshadow="2"
     inkscape:pageopacity="0"
     guidetolerance="10"
     gridtolerance="10"
     objecttolerance="10"
     borderopacity="1"
     bordercolor="#666666"
     pagecolor="#ffffff" />
  <g
     id="g8"
     transform="translate(0 -1036.4)">
    <path
       transform="translate(0,1036.4)"
       sodipodi:nodetypes="ccccccccssccssc"
       id="path2"
       fill="#e0e0e0"
       d="M 6,1 5,2 V 13 H 4 V 11 H 2 v 3 l 1,1 h 7 c 1.104569,0 2,-0.895431 2,-2 V 5 h 3 V 3 C 15,1.8954305 14.104569,1 13,1 Z" />
    <path
       sodipodi:nodetypes="sscccssszccccccsccszsc"
       id="path4"
       transform="translate(0,1036.4)"
       fill="#b4b4b4"
       d="M 6,1 C 4.8954,1 4,1.89543 4,3 v 7 H 1 v 3 c 0,1.1046 0.89543,2 2,2 1.10457,0 2,-0.89543 2,-2 V 3 C 5,2.44772 5.44772,2 6,2 6.55228,2 7,2.44772 7,3 v 3 h 5 V 5 H 8 V 3 C 8,1.8954 7.10457,1 6,1 Z M 2,11 h 2 v 2 C 4,13.55228 3.55228,14 3,14 2.44772,14 2,13.55228 2,13 Z" />
    <circle
       id="circle6"
       fill="#e0e0e0"
       cy="1048.4"
       cx="3" />
  </g>
</svg>
